X:1
T: The Connaughtman's Rambles
R: jig
M: 6/8
L: 1/8
O: Trad. (17.1.2018/NS)
K:Dmaj
|:"D"F2A d2A|BAB dAG|F2A dfe|"G"dBB BAG|
"D"F2A d2A|BAB def|"G"gfe dfe|1"A"dBB BAG:|2 "A"dBB B3||
|:"Bm"fbb faa|fef def|"A"fbb faa|fed e3|
"G"fbb faa|fef def|"A"gfe dfe|1 dBB B3:|2 dBB BAG||


